polaris-icons/icons/newicons/CircleDownMajor.svg

<svg width="20" height="20" viewBox="0 0 20 20" fill="none" xmlns="http://www.w3.org/2000/svg">
<path d="M10.75 6C10.75 5.58579 10.4142 5.25 10 5.25C9.58579 5.25 9.25 5.58579 9.25 6V11.787L7.25871 9.9489C6.95434 9.66794 6.47985 9.68692 6.1989 9.99129C5.91794 10.2957 5.93692 10.7702 6.24129 11.0511L9.49129 14.0511C9.77859 14.3163 10.2214 14.3163 10.5087 14.0511L13.7587 11.0511C14.0631 10.7702 14.0821 10.2957 13.8011 9.99129C13.5201 9.68692 13.0457 9.66794 12.7413 9.9489L10.75 11.787V6Z" fill="black"/>
<path fill-rule="evenodd" clip-rule="evenodd" d="M18 10C18 14.4183 14.4183 18 10 18C5.58172 18 2 14.4183 2 10C2 5.58172 5.58172 2 10 2C14.4183 2 18 5.58172 18 10ZM16.5 10C16.5 13.5899 13.5899 16.5 10 16.5C6.41015 16.5 3.5 13.5899 3.5 10C3.5 6.41015 6.41015 3.5 10 3.5C13.5899 3.5 16.5 6.41015 16.5 10Z" fill="black"/>
</svg>

<svg viewBox="0 0 20 20" fill="none" xmlns="http://www.w3.org/2000/svg"><path d="M10.75 6a.75.75 0 0 0-1.5 0v5.787l-1.991-1.838a.75.75 0 1 0-1.018 1.102l3.25 3a.75.75 0 0 0 1.018 0l3.25-3a.75.75 0 1 0-1.018-1.102l-1.991 1.838v-5.787Z" fill="#000"/><path fill-rule="evenodd" clip-rule="evenodd" d="M18 10a8 8 0 1 1-16 0 8 8 0 0 1 16 0Zm-1.5 0a6.5 6.5 0 1 1-13 0 6.5 6.5 0 0 1 13 0Z" fill="#000"/></svg>
